build/flags/NorfolkIsland.svg

<svg xmlns="http://www.w3.org/2000/svg" fill="none" viewBox="0 0 28 28" focusable="false"><defs><filter id="Norfolk_Island_svg__a"><feColorMatrix values="0 0 0 0 1 0 0 0 0 1 0 0 0 0 1 0 0 0 1 0"/></filter></defs><mask id="Norfolk_Island_svg__b" width="28" height="20" x="0" y="4" maskUnits="userSpaceOnUse"><g filter="url(#Norfolk_Island_svg__a)"><rect width="28" height="20" y="4" fill="#C4C4C4" rx="3"/></g></mask><path fill="none" d="M0 0H28V28H0z"/><rect width="28" height="20" y="4" fill="#FFF" rx="3"/><rect width="27.5" height="19.5" x=".25" y="4.25" stroke="#D6D8DD" stroke-width=".5" rx="2.75"/><g mask="url(#Norfolk_Island_svg__b)"><path fill="#34763C" d="M0 4H9.33V24H0zM18.67 4H28V24H18.67z"/><path fill="#34763C" fill-rule="evenodd" d="M12.9428 16.3905C13.1585 16.1749 13.1585 15.8252 12.9428 15.6095L12.8661 15.5328C12.7424 15.4091 12.5628 15.3593 12.3931 15.4018L12.0138 15.4966C11.5701 15.6075 11.2948 15.0289 11.6606 14.7546L12.0033 14.4975C12.2158 14.3382 12.1031 14 11.8375 14L11.8375 14C11.5458 14 11.453 13.6068 11.7139 13.4764L12.2861 13.1903C12.547 13.0599 12.4542 12.6667 12.1625 12.6667L12.1625 12.6667C11.8969 12.6667 11.7842 12.3285 11.9967 12.1692L13.6 10.9667C13.837 10.7889 14.163 10.7889 14.4 10.9667L16.0033 12.1692C16.2158 12.3286 16.1031 12.6667 15.8375 12.6667L15.8375 12.6667C15.5458 12.6667 15.453 13.0599 15.7139 13.1903L16.2861 13.4764C16.547 13.6068 16.4542 14 16.1625 14L16.1625 14C15.8969 14 15.7842 14.3382 15.9967 14.4975L16.3394 14.7546C16.7052 15.0289 16.4299 15.6075 15.9862 15.4966L15.6069 15.4018C15.4372 15.3593 15.2576 15.4091 15.1339 15.5328L15.0572 15.6095C14.8415 15.8252 14.8415 16.1749 15.0572 16.3905L15.0572 16.3905C15.4051 16.7385 15.1587 17.3334 14.6667 17.3334L13.3333 17.3334C12.8413 17.3334 12.5949 16.7385 12.9428 16.3905L12.9428 16.3905Z"/><path d="M12.8661 15.5328C12.7424 15.4091 12.5628 15.3593 12.3931 15.4018L12.0138 15.4966C11.5701 15.6075 11.2948 15.0289 11.6606 14.7546L12.0033 14.4975C12.2158 14.3382 12.1031 14 11.8375 14C11.5458 14 11.453 13.6068 11.7139 13.4764L12.2861 13.1903C12.547 13.0599 12.4542 12.6667 12.1625 12.6667C11.8969 12.6667 11.7842 12.3285 11.9967 12.1692L13.6 10.9667C13.837 10.7889 14.163 10.7889 14.4 10.9667L16.0033 12.1692C16.2158 12.3285 16.1031 12.6667 15.8375 12.6667C15.5458 12.6667 15.453 13.0599 15.7139 13.1903L16.2861 13.4764C16.547 13.6068 16.4542 14 16.1625 14C15.8969 14 15.7842 14.3382 15.9967 14.4975L16.3394 14.7546C16.7052 15.0289 16.4299 15.6075 15.9862 15.4966L15.6069 15.4018C15.4372 15.3593 15.2576 15.4091 15.1339 15.5328L15.0572 15.6095C14.8415 15.8252 14.8415 16.1749 15.0572 16.3905C15.4051 16.7385 15.1587 17.3334 14.6667 17.3334L13.3333 17.3334C12.8413 17.3334 12.5949 16.7385 12.9428 16.3905C13.1585 16.1749 13.1585 15.8252 12.9428 15.6095L12.8661 15.5328Z"/></g></svg>

<svg xmlns="http://www.w3.org/2000/svg" fill="none" viewBox="0 0 29 28" focusable="false"><path fill="none" d="M0 0h28v28H0z"/><rect width="28" height="20" y="4" fill="#FFF" rx="3"/><rect width="27.5" height="19.5" x=".25" y="4.25" stroke="#D6D8DD" stroke-width=".5" rx="3"/><mask id="Norfolk_Island_svg__a" width="28" height="20" x="0" y="4" mask-type="alpha" maskUnits="userSpaceOnUse"><rect width="28" height="20" y="4" fill="#C4C4C4" rx="3"/></mask><g mask="url(#Norfolk_Island_svg__a)"><path fill="#34763C" d="M0 4h9.33v20H0z"/></g><g mask="url(#Norfolk_Island_svg__a)"><path fill="#34763C" d="M18.67 4H28v20h-9.33z"/></g><g mask="url(#Norfolk_Island_svg__a)"><path fill="#34763C" fill-rule="evenodd" d="M12.94 16.39c.21-.22.21-.57 0-.79l-.08-.07a.46.46 0 0 0-.47-.13l-.38.09c-.44.11-.72-.47-.35-.74l.34-.26c.21-.16.1-.49-.17-.49-.29 0-.38-.4-.12-.53l.57-.28c.26-.14.17-.53-.12-.53-.27 0-.38-.34-.17-.5l1.61-1.2a.66.66 0 0 1 .8 0l1.6 1.2c.21.16.1.5-.17.5-.29 0-.38.39-.12.53l.57.28c.26.13.17.53-.12.53-.27 0-.38.33-.17.49l.34.26c.37.27.09.85-.35.74l-.38-.09a.46.46 0 0 0-.47.13l-.08.07c-.21.22-.21.57 0 .79.35.34.1.94-.39.94h-1.33c-.49 0-.74-.6-.39-.94"/><path d="M12.86 15.53a.46.46 0 0 0-.47-.13c-.53.13-.86-.56-.42-.88l.03-.03c.21-.16.1-.49-.17-.49-.29 0-.38-.4-.12-.53l.57-.28c.26-.14.17-.53-.12-.53-.27 0-.38-.34-.17-.5l1.61-1.2a.66.66 0 0 1 .8 0l1.6 1.2c.21.16.1.5-.17.5-.29 0-.38.39-.12.53l.57.28c.26.13.17.53-.12.53-.27 0-.38.33-.17.49l.34.26c.37.27.09.85-.35.74l-.38-.09a.46.46 0 0 0-.47.13l-.08.07c-.21.22-.21.57 0 .79.35.34.1.94-.39.94h-1.33c-.49 0-.74-.6-.39-.94.21-.22.21-.57 0-.79z"/></g></svg>
